images/folder-move.svg

<svg xmlns="http://www.w3.org/2000/svg" width="24" height="24" viewBox="0 0 24 24"><path fill="#333" d="M9 18v-3H5v-4h4V8l5 5m6-7h-8l-2-2H4c-1.11 0-2 .89-2 2v12a2 2 0 0 0 2 2h16a2 2 0 0 0 2-2V8a2 2 0 0 0-2-2z"/></svg>

<svg xmlns="http://www.w3.org/2000/svg" version="1.1" width="24" height="24" viewBox="0 0 24 24"><path fill="#333" d="M9,18V15H5V11H9V8L14,13M20,6H12L10,4H4C2.89,4 2,4.89 2,6V18A2,2 0 0,0 4,20H20A2,2 0 0,0 22,18V8C22,6.89 21.1,6 20,6Z"/></svg>
